public/icons/tools/typescript.svg

<svg width="32" height="32" viewBox="0 0 32 32" xmlns="http://www.w3.org/2000/svg">
  <path
    d="M4 4H28V28H4V4ZM18.28 23.8133C18.9467 25.12 20.2933 26.12 22.4 26.12C24.5333 26.12 26.1333 25.0133 26.1333 22.9733C26.1333 21.0933 25.0533 20.2533 23.1333 19.4267L22.5733 19.1867C21.6 18.7733 21.1867 18.4933 21.1867 17.8267C21.1867 17.28 21.6 16.8533 22.2667 16.8533C22.9067 16.8533 23.3333 17.1333 23.72 17.8267L25.4667 16.6667C24.7333 15.3867 23.6933 14.8933 22.2667 14.8933C20.2533 14.8933 18.96 16.1733 18.96 17.8667C18.96 19.7067 20.04 20.5733 21.6667 21.2667L22.2267 21.5067C23.2667 21.96 23.88 22.24 23.88 23.0133C23.88 23.6533 23.28 24.12 22.3467 24.12C21.24 24.12 20.6 23.5467 20.12 22.7467L18.28 23.8133ZM17.3333 15H10.6667V17H12.6667V26.6667H15V17H17.3333V15Z"
    fill="#000000" />
</svg>

<svg width="32" height="32" xmlns="http://www.w3.org/2000/svg"><path d="M4 4h24v24H4V4zm14.28 19.813c.667 1.307 2.013 2.307 4.12 2.307 2.133 0 3.733-1.107 3.733-3.147 0-1.88-1.08-2.72-3-3.546l-.56-.24c-.973-.414-1.386-.694-1.386-1.36 0-.547.413-.974 1.08-.974.64 0 1.066.28 1.453.974l1.747-1.16c-.734-1.28-1.774-1.774-3.2-1.774-2.014 0-3.307 1.28-3.307 2.974 0 1.84 1.08 2.706 2.707 3.4l.56.24c1.04.453 1.653.733 1.653 1.506 0 .64-.6 1.107-1.533 1.107-1.107 0-1.747-.573-2.227-1.373l-1.84 1.066zM17.333 15h-6.666v2h2v9.667H15V17h2.333v-2z"/></svg>
